contributed-vectors/mcafee.svg

<?xml version="1.0" encoding="UTF-8" standalone="no"?>
<svg
   xmlns:dc="http://purl.org/dc/elements/1.1/"
   xmlns:cc="http://creativecommons.org/ns#"
   xmlns:rdf="http://www.w3.org/1999/02/22-rdf-syntax-ns#"
   xmlns:svg="http://www.w3.org/2000/svg"
   xmlns="http://www.w3.org/2000/svg"
   xmlns:sodipodi="http://sodipodi.sourceforge.net/DTD/sodipodi-0.dtd"
   xmlns:inkscape="http://www.inkscape.org/namespaces/inkscape"
   sodipodi:docname="mcafee.svg"
   inkscape:version="1.0.1 (3bc2e813f5, 2020-09-07)"
   version="1.1"
   id="svg2"
   viewBox="0 0 192 192"
   height="192"
   width="192"
   inkscape:export-filename="/home/jphilippe/inkscape/icônes/delta-github/png/mcafee.png"
   inkscape:export-xdpi="96"
   inkscape:export-ydpi="96">
  <sodipodi:namedview
     inkscape:document-rotation="0"
     inkscape:window-maximized="1"
     inkscape:window-y="30"
     inkscape:window-x="1920"
     inkscape:window-height="1022"
     inkscape:window-width="1680"
     units="px"
     showgrid="false"
     inkscape:current-layer="layer1"
     inkscape:document-units="px"
     inkscape:cy="79.990066"
     inkscape:cx="-101.53457"
     inkscape:zoom="1"
     inkscape:pageshadow="2"
     inkscape:pageopacity="0.0"
     borderopacity="1.0"
     bordercolor="#666666"
     pagecolor="#ffffff"
     id="base"
     inkscape:snap-bbox="false"
     inkscape:object-paths="true"
     inkscape:snap-nodes="true"
     showguides="true"
     inkscape:guide-bbox="true"
     inkscape:snap-object-midpoints="true"
     inkscape:snap-center="true"
     inkscape:snap-global="true"
     inkscape:snap-intersection-paths="true"
     inkscape:snap-smooth-nodes="true"
     inkscape:snap-midpoints="true" />
  <defs
     id="defs4" />
  <metadata
     id="metadata7">
    <rdf:RDF>
      <cc:Work
         rdf:about="">
        <dc:format>image/svg+xml</dc:format>
        <dc:type
           rdf:resource="http://purl.org/dc/dcmitype/StillImage" />
        <dc:title />
      </cc:Work>
    </rdf:RDF>
  </metadata>
  <g
     transform="translate(0,-860.36216)"
     id="layer1"
     inkscape:groupmode="layer"
     inkscape:label="Calque 1">
    <path
       id="path945"
       style="fill:#ba6561;fill-opacity:1;stroke-width:8.41178"
       d="m 160.9212,879.86232 a 1.9298189,1.9298189 0 0 0 -0.79428,0.18177 L 99.169201,908.59456 A 6.5206081,6.5206081 0 0 1 96,909.19718 v 30.27536 a 6.4841773,6.4841773 0 0 0 3.169201,-0.5967 L 133.2065,922.94488 a 1.9303576,1.9303576 0 0 1 2.74835,1.74859 v 57.01795 a 4.7715342,4.7715342 0 0 1 -2.74835,4.32111 L 99.169201,1001.9655 A 6.4833833,6.4833833 0 0 1 96,1002.5622 v 30.2872 a 6.5206123,6.5206123 0 0 0 3.169201,-0.6007 l 60.957719,-28.5504 a 4.7726174,4.7726174 0 0 0 2.74836,-4.32114 V 881.79268 a 1.9298189,1.9298189 0 0 0 -1.95408,-1.93036 z" />
    <path
       id="path979"
       style="fill:#ff837d;fill-opacity:1;stroke-width:8.41178"
       d="m 31.078799,879.86232 a 1.9298189,1.9298189 0 0 1 0.79428,0.18176 l 60.957722,28.55048 A 6.5206081,6.5206081 0 0 0 96,909.19718 v 30.27536 a 6.4841773,6.4841773 0 0 1 -3.169199,-0.5967 L 58.793497,922.94488 a 1.9303576,1.9303576 0 0 0 -2.748346,1.74858 v 57.01796 a 4.7715342,4.7715342 0 0 0 2.748346,4.32111 l 34.037304,15.93287 A 6.4833833,6.4833833 0 0 0 96,1002.5622 v 30.2871 a 6.5206123,6.5206123 0 0 1 -3.169199,-0.6006 l -60.957722,-28.5505 a 4.7726174,4.7726174 0 0 1 -2.748357,-4.32104 V 881.79268 a 1.9298189,1.9298189 0 0 1 1.954077,-1.93036 z" />
  </g>
  <style
     type="text/css"
     id="style853">
	.st0{fill:#FFFFFF;}
</style>
  <style
     type="text/css"
     id="style853-9">
	.st0{fill:#FFFFFF;}
</style>
  <style
     type="text/css"
     id="style853-3">
	.st0{fill:#FFFFFF;}
</style>
</svg>

<svg xmlns="http://www.w3.org/2000/svg" id="svg2" width="192" height="192" version="1.1"><g id="layer1" transform="translate(0 -860.362)"><path id="path945" d="M160.921 879.862a1.93 1.93 0 0 0-.794.182l-60.958 28.55a6.52 6.52 0 0 1-3.169.603v30.276a6.484 6.484 0 0 0 3.17-.597l34.037-15.931a1.93 1.93 0 0 1 2.748 1.748v57.018a4.772 4.772 0 0 1-2.749 4.322l-34.037 15.933a6.483 6.483 0 0 1-3.169.596v30.287a6.52 6.52 0 0 0 3.17-.6l60.957-28.55a4.773 4.773 0 0 0 2.748-4.322V881.793a1.93 1.93 0 0 0-1.954-1.93z" style="fill:#ba6561;fill-opacity:1;stroke-width:8.41178"/><path id="path979" d="M31.079 879.862a1.93 1.93 0 0 1 .794.182l60.958 28.55a6.52 6.52 0 0 0 3.169.603v30.276a6.484 6.484 0 0 1-3.17-.597l-34.037-15.931a1.93 1.93 0 0 0-2.748 1.748v57.018a4.772 4.772 0 0 0 2.748 4.322l34.038 15.932a6.483 6.483 0 0 0 3.169.597v30.287a6.52 6.52 0 0 1-3.17-.6l-60.957-28.55a4.773 4.773 0 0 1-2.748-4.322V881.793a1.93 1.93 0 0 1 1.954-1.93z" style="fill:#ff837d;fill-opacity:1;stroke-width:8.41178"/></g><style id="style853" type="text/css">.st0{fill:#fff}</style></svg>
